imgsrc/plusplus.svg

<?xml version="1.0" encoding="UTF-8" standalone="no"?>
<!-- Created with Inkscape (http://www.inkscape.org/) -->

<svg
   xmlns:dc="http://purl.org/dc/elements/1.1/"
   xmlns:cc="http://creativecommons.org/ns#"
   xmlns:rdf="http://www.w3.org/1999/02/22-rdf-syntax-ns#"
   xmlns:svg="http://www.w3.org/2000/svg"
   xmlns="http://www.w3.org/2000/svg"
   xmlns:sodipodi="http://sodipodi.sourceforge.net/DTD/sodipodi-0.dtd"
   xmlns:inkscape="http://www.inkscape.org/namespaces/inkscape"
   width="128"
   height="128"
   viewBox="0 0 128 128"
   id="svg2"
   version="1.1"
   inkscape:version="0.92.2 5c3e80d, 2017-08-06"
   sodipodi:docname="plusplus.svg">
  <defs
     id="defs4" />
  <sodipodi:namedview
     id="base"
     pagecolor="#ffffff"
     bordercolor="#666666"
     borderopacity="1.0"
     inkscape:pageopacity="0.0"
     inkscape:pageshadow="2"
     inkscape:zoom="2.52183"
     inkscape:cx="40.803539"
     inkscape:cy="72.470448"
     inkscape:document-units="px"
     inkscape:current-layer="layer1"
     showgrid="false"
     units="px"
     showguides="true"
     inkscape:guide-bbox="true"
     inkscape:window-width="1366"
     inkscape:window-height="694"
     inkscape:window-x="0"
     inkscape:window-y="48"
     inkscape:window-maximized="1">
    <inkscape:grid
       type="xygrid"
       id="grid4136"
       empspacing="4" />
    <sodipodi:guide
       position="8,140"
       orientation="1,0"
       id="guide4138"
       inkscape:label="Margin Left"
       inkscape:color="rgb(0,0,255)"
       inkscape:locked="false" />
    <sodipodi:guide
       position="120,140"
       orientation="1,0"
       id="guide4140"
       inkscape:label="Margin Right"
       inkscape:color="rgb(0,0,255)"
       inkscape:locked="false" />
    <sodipodi:guide
       position="-20,120"
       orientation="0,1"
       id="guide4142"
       inkscape:label="Margin Top"
       inkscape:color="rgb(0,0,255)"
       inkscape:locked="false" />
    <sodipodi:guide
       position="-16,8"
       orientation="0,1"
       id="guide4144"
       inkscape:label="Margin Bottom"
       inkscape:color="rgb(0,0,255)"
       inkscape:locked="false" />
    <sodipodi:guide
       position="8,8"
       orientation="-0.70710678,0.70710678"
       id="guide4146"
       inkscape:locked="false" />
    <sodipodi:guide
       position="72,56"
       orientation="0.70710678,0.70710678"
       id="guide4148"
       inkscape:locked="false" />
    <sodipodi:guide
       position="20,140"
       orientation="1,0"
       id="guide4150"
       inkscape:label="Rectangle Left"
       inkscape:color="rgb(0,0,255)"
       inkscape:locked="false" />
    <sodipodi:guide
       position="108,140"
       orientation="1,0"
       id="guide4152"
       inkscape:label="Rectangle Right"
       inkscape:color="rgb(0,0,255)"
       inkscape:locked="false" />
    <sodipodi:guide
       position="-20,116"
       orientation="0,1"
       id="guide4154"
       inkscape:label="Shadow Top"
       inkscape:color="rgb(0,0,255)"
       inkscape:locked="false" />
    <sodipodi:guide
       position="-16,12"
       orientation="0,1"
       id="guide4156"
       inkscape:label="Shadow Bottom"
       inkscape:color="rgb(0,0,255)"
       inkscape:locked="false" />
    <sodipodi:guide
       position="-20,104"
       orientation="0,1"
       id="guide4158"
       inkscape:label="Rectangle Top"
       inkscape:color="rgb(0,0,255)"
       inkscape:locked="false" />
    <sodipodi:guide
       position="-16,24"
       orientation="0,1"
       id="guide4160"
       inkscape:label="Rectangle Bottom"
       inkscape:color="rgb(0,0,255)"
       inkscape:locked="false" />
  </sodipodi:namedview>
  <metadata
     id="metadata7">
    <rdf:RDF>
      <cc:Work
         rdf:about="">
        <dc:format>image/svg+xml</dc:format>
        <dc:type
           rdf:resource="http://purl.org/dc/dcmitype/StillImage" />
        <dc:title />
      </cc:Work>
    </rdf:RDF>
  </metadata>
  <g
     inkscape:label="Layer 1"
     inkscape:groupmode="layer"
     id="layer1"
     transform="translate(0,-924.36216)">
    <g
       id="g878">
      <rect
         style="fill:#c2c2c2;stroke-width:4"
         id="rect2"
         transform="rotate(90)"
         ry="6"
         rx="6"
         y="-120"
         x="930.36218"
         height="76"
         width="76" />
      <path
         style="opacity:0.2;stroke-width:4"
         inkscape:connector-curvature="0"
         id="path6"
         d="m 43.999999,1000.3622 v 4 c 0,3.324 2.676,6 6,6 H 114 c 3.324,0 6,-2.676 6,-6 v -4 c 0,3.324 -2.676,6 -6,6 H 49.999999 c -3.324,0 -6,-2.676 -6,-6 z" />
    </g>
    <path
       d="m 49.999999,930.36215 c -3.324,0 -6,2.676 -6,6 v 4 c 0,-3.324 2.676,-6 6,-6 H 114 c 3.324,0 6,2.676 6,6 v -4 c 0,-3.324 -2.676,-6 -6,-6 z"
       id="path10"
       inkscape:connector-curvature="0"
       style="opacity:0.1;fill:#ffffff;stroke-width:4" />
    <path
       d="m 13.999999,966.36215 c -3.324,0 -6,2.676 -6,6 v 4 c 0,-3.324 2.676,-6 6,-6 h 64 c 3.324,0 6,2.676 6,6 v -4 c 0,-3.324 -2.676,-6 -6,-6 z"
       id="path12"
       inkscape:connector-curvature="0"
       style="opacity:0.1;fill:#ffffff;stroke-width:4" />
    <g
       transform="translate(75.863156,-55.307244)"
       id="g71">
      <path
         inkscape:connector-curvature="0"
         style="fill:#4caf50;fill-opacity:1;stroke-width:2.28571439"
         d="m 6.136845,992.52658 a 32,32 0 0 0 -32,32.00002 32,32 0 0 0 32,32 32,32 0 0 0 32,-32 32,32 0 0 0 -32,-32.00002 z"
         id="path61" />
      <path
         d="m 6.1368456,992.52657 a 32,32 0 0 0 -31.9999996,32.00003 32,32 0 0 0 0.04914,1.3394 32,32 0 0 1 31.9497147,-31.05372 32,32 0 0 1 31.9519993,30.66062 32,32 0 0 0 0.048,-0.9463 32,32 0 0 0 -31.9999993,-32.00003 z"
         id="path63"
         inkscape:connector-curvature="0"
         style="opacity:0.2;fill:#ffffff;stroke-width:2.28571439" />
      <path
         d="m 38.088845,1025.4729 a 32,32 0 0 1 -31.9519994,31.0537 32,32 0 0 1 -31.9497146,-30.6606 32,32 0 0 0 -0.05029,0.9463 32,32 0 0 0 31.9999996,32 32,32 0 0 0 31.9999994,-32 32,32 0 0 0 -0.048,-1.3394 z"
         id="path65"
         inkscape:connector-curvature="0"
         style="opacity:0.2;stroke-width:2.28571439" />
      <path
         inkscape:connector-curvature="0"
         id="path67"
         d="m 2.136845,1006.8123 v 16 h -16 v 8 h 16 v 16 h 8 v -16 h 16 v -8 h -16 v -16 z"
         style="opacity:0.2;stroke-width:4" />
      <path
         style="fill:#ffffff;stroke-width:4"
         d="m 2.136845,1004.5266 v 16 h -16 v 8 h 16 v 16 h 8 v -16 h 16 v -8 h -16 v -16 z"
         id="path69"
         inkscape:connector-curvature="0" />
    </g>
    <g
       id="g855"
       transform="translate(27.915093,27.600165)">
      <rect
         style="fill:#d3d3d3;stroke-width:4"
         id="rect8"
         transform="rotate(90)"
         ry="6"
         rx="6"
         y="-56.084908"
         x="938.76202"
         height="76"
         width="76" />
      <path
         style="opacity:0.2;stroke-width:4"
         inkscape:connector-curvature="0"
         id="path16"
         d="m -19.915094,1008.762 v 4 c 0,3.324 2.676,6 6,6 h 64 c 3.324,0 6,-2.676 6,-6 v -4 c 0,3.324 -2.676,6 -6,6 h -64 c -3.324,0 -6,-2.676 -6,-6 z" />
    </g>
    <g
       id="g59"
       transform="translate(39.863157,-19.307258)">
      <path
         id="circle2"
         d="m 6.136845,992.52658 a 32,32 0 0 0 -32,32.00002 32,32 0 0 0 32,32 32,32 0 0 0 32,-32 32,32 0 0 0 -32,-32.00002 z"
         style="fill:#4caf50;fill-opacity:1;stroke-width:2.28571439"
         inkscape:connector-curvature="0" />
      <path
         style="opacity:0.2;fill:#ffffff;stroke-width:2.28571439"
         inkscape:connector-curvature="0"
         id="path8"
         d="m 6.1368456,992.52657 a 32,32 0 0 0 -31.9999996,32.00003 32,32 0 0 0 0.04914,1.3394 32,32 0 0 1 31.9497147,-31.05372 32,32 0 0 1 31.9519993,30.66062 32,32 0 0 0 0.048,-0.9463 32,32 0 0 0 -31.9999993,-32.00003 z" />
      <path
         style="opacity:0.2;stroke-width:2.28571439"
         inkscape:connector-curvature="0"
         id="path10-3"
         d="m 38.088845,1025.4729 a 32,32 0 0 1 -31.9519994,31.0537 32,32 0 0 1 -31.9497146,-30.6606 32,32 0 0 0 -0.05029,0.9463 32,32 0 0 0 31.9999996,32 32,32 0 0 0 31.9999994,-32 32,32 0 0 0 -0.048,-1.3394 z" />
      <path
         style="opacity:0.2;stroke-width:4"
         d="m 2.136845,1006.8123 v 16 h -16 v 8 h 16 v 16 h 8 v -16 h 16 v -8 h -16 v -16 z"
         id="path843"
         inkscape:connector-curvature="0" />
      <path
         inkscape:connector-curvature="0"
         id="path18-6"
         d="m 2.136845,1004.5266 v 16 h -16 v 8 h 16 v 16 h 8 v -16 h 16 v -8 h -16 v -16 z"
         style="fill:#ffffff;stroke-width:4" />
    </g>
  </g>
</svg>

<svg xmlns="http://www.w3.org/2000/svg" width="32" height="32" version="1.1" viewBox="0 0 32 32">
 <g transform="translate(0,-1020.4)">
  <g transform="matrix(0.25,0,0,0.25,0,789.26)">
   <g>
    <rect style="fill:#c2c2c2" width="76" height="76" x="930.36" y="-120" rx="6" ry="6" transform="rotate(90)"/>
    <path style="opacity:0.2" d="M 44,1000.4 V 1004.4 C 44,1007.7 46.676,1010.4 50,1010.4 H 114 C 117.32,1010.4 120,1007.7 120,1004.4 V 1000.4 C 120,1003.7 117.32,1006.4 114,1006.4 H 50 C 46.676,1006.4 44,1003.7 44,1000.4 Z"/>
   </g>
   <path style="opacity:0.1;fill:#ffffff" d="M 50,930.36 C 46.676,930.36 44,933.04 44,936.36 V 940.36 C 44,937.04 46.676,934.36 50,934.36 H 114 C 117.32,934.36 120,937.04 120,940.36 V 936.36 C 120,933.04 117.32,930.36 114,930.36 Z"/>
   <path style="opacity:0.1;fill:#ffffff" d="M 14,966.36 C 10.676,966.36 8,969.04 8,972.36 V 976.36 C 8,973.04 10.676,970.36 14,970.36 H 78 C 81.324,970.36 84,973.04 84,976.36 V 972.36 C 84,969.04 81.324,966.36 78,966.36 Z"/>
   <g transform="translate(75.863,-55.307)">
    <path style="fill:#4caf50" d="M 6.1368,992.53 A 32,32 0 0 0 -25.863,1024.5 32,32 0 0 0 6.1368,1056.5 32,32 0 0 0 38.137,1024.5 32,32 0 0 0 6.1368,992.53 Z"/>
    <path style="opacity:0.2;fill:#ffffff" d="M 6.1368,992.53 A 32,32 0 0 0 -25.863,1024.5 32,32 0 0 0 -25.814,1025.9 32,32 0 0 1 6.1357,994.81 32,32 0 0 1 38.088,1025.5 32,32 0 0 0 38.136,1024.5 32,32 0 0 0 6.1357,992.53 Z"/>
    <path style="opacity:0.2" d="M 38.089,1025.5 A 32,32 0 0 1 6.1368,1056.5 32,32 0 0 1 -25.813,1025.9 32,32 0 0 0 -25.863,1026.8 32,32 0 0 0 6.1368,1058.8 32,32 0 0 0 38.137,1026.8 32,32 0 0 0 38.089,1025.5 Z"/>
    <path style="opacity:0.2" d="M 2.1368,1006.8 V 1022.8 H -13.863 V 1030.8 H 2.1368 V 1046.8 H 10.137 V 1030.8 H 26.137 V 1022.8 H 10.137 V 1006.8 Z"/>
    <path style="fill:#ffffff" d="M 2.1368,1004.5 V 1020.5 H -13.863 V 1028.5 H 2.1368 V 1044.5 H 10.137 V 1028.5 H 26.137 V 1020.5 H 10.137 V 1004.5 Z"/>
   </g>
   <g transform="translate(27.915,27.6)">
    <rect style="fill:#d3d3d3" width="76" height="76" x="938.76" y="-56.09" rx="6" ry="6" transform="rotate(90)"/>
    <path style="opacity:0.2" d="M -19.915,1008.8 V 1012.8 C -19.915,1016.1 -17.239,1018.8 -13.915,1018.8 H 50.085 C 53.409,1018.8 56.085,1016.1 56.085,1012.8 V 1008.8 C 56.085,1012.1 53.409,1014.8 50.085,1014.8 H -13.915 C -17.239,1014.8 -19.915,1012.1 -19.915,1008.8 Z"/>
   </g>
   <g transform="translate(39.863,-19.307)">
    <path style="fill:#4caf50" d="M 6.1368,992.53 A 32,32 0 0 0 -25.863,1024.5 32,32 0 0 0 6.1368,1056.5 32,32 0 0 0 38.137,1024.5 32,32 0 0 0 6.1368,992.53 Z"/>
    <path style="opacity:0.2;fill:#ffffff" d="M 6.1368,992.53 A 32,32 0 0 0 -25.863,1024.5 32,32 0 0 0 -25.814,1025.9 32,32 0 0 1 6.1357,994.81 32,32 0 0 1 38.088,1025.5 32,32 0 0 0 38.136,1024.5 32,32 0 0 0 6.1357,992.53 Z"/>
    <path style="opacity:0.2" d="M 38.089,1025.5 A 32,32 0 0 1 6.1368,1056.5 32,32 0 0 1 -25.813,1025.9 32,32 0 0 0 -25.863,1026.8 32,32 0 0 0 6.1368,1058.8 32,32 0 0 0 38.137,1026.8 32,32 0 0 0 38.089,1025.5 Z"/>
    <path style="opacity:0.2" d="M 2.1368,1006.8 V 1022.8 H -13.863 V 1030.8 H 2.1368 V 1046.8 H 10.137 V 1030.8 H 26.137 V 1022.8 H 10.137 V 1006.8 Z"/>
    <path style="fill:#ffffff" d="M 2.1368,1004.5 V 1020.5 H -13.863 V 1028.5 H 2.1368 V 1044.5 H 10.137 V 1028.5 H 26.137 V 1020.5 H 10.137 V 1004.5 Z"/>
   </g>
  </g>
 </g>
</svg>
